src/actions/16/format-precision-less.svg

<svg viewBox="0 0 16 16" xmlns="http://www.w3.org/2000/svg">
 <defs>
  <style type="text/css">.ColorScheme-Text {
        color:#2e3440;
      }
      .ColorScheme-NegativeText {
        color:#bf616a;
      }</style>
 </defs>
 <path class="ColorScheme-Text" d="m5.5 2c-1.381 0-2.5 1.119-2.5 2.5v3c0 1.381 1.119 2.5 2.5 2.5s2.5-1.119 2.5-2.5v-3c0-1.381-1.119-2.5-2.5-2.5zm0 1c0.828 0 1.5 0.672 1.5 1.5v3c0 0.828-0.672 1.5-1.5 1.5s-1.5-0.672-1.5-1.5v-3c0-0.828 0.672-1.5 1.5-1.5zm-3.5 6v1h1v-1h-1z" fill="currentColor"/>
 <path class="ColorScheme-Text" d="m11.5 2c-1.381 0-2.5 1.119-2.5 2.5v3c0 1.381 1.119 2.5 2.5 2.5s2.5-1.119 2.5-2.5v-3c0-1.381-1.119-2.5-2.5-2.5m0 1c0.828 0 1.5 0.672 1.5 1.5v3c0 0.828-0.672 1.5-1.5 1.5s-1.5-0.672-1.5-1.5v-3c0-0.828 0.672-1.5 1.5-1.5" fill="currentColor" fill-opacity=".5"/>
 <path class="ColorScheme-NegativeText" d="m9.37 10.47 1.414 1.414-1.414 1.414 0.707 0.707 1.414-1.414 1.414 1.414 0.707-0.707-1.414-1.414 1.414-1.414-0.707-0.707-1.414 1.414-1.414-1.414z" fill="currentColor"/>
</svg>

<svg xmlns="http://www.w3.org/2000/svg" viewBox="0 0 16 16">
  <defs id="defs3051">
    <style type="text/css" id="current-color-scheme">
      .ColorScheme-Text {
        color:#2e3440;
      }
      .ColorScheme-NegativeText {
        color:#bf616a;
      }
      </style>
  </defs>
 <path style="fill:currentColor;fill-opacity:1;stroke:none" 
     d="M 5.5 2 C 4.119 2 3 3.119 3 4.5 L 3 7.5 C 3 8.881 4.119 10 5.5 10 C 6.881 10 8 8.881 8 7.5 L 8 4.5 C 8 3.119 6.881 2 5.5 2 z M 5.5 3 C 6.328 3 7 3.672 7 4.5 L 7 7.5 C 7 8.328 6.328 9 5.5 9 C 4.672 9 4 8.328 4 7.5 L 4 4.5 C 4 3.672 4.672 3 5.5 3 z M 2 9 L 2 10 L 3 10 L 3 9 L 2 9 z "
     class="ColorScheme-Text"
     />
 <path style="fill:currentColor;fill-opacity:0.5;stroke:none" 
     d="M 11.5,2 C 10.119,2 9,3.119 9,4.5 l 0,3 C 9,8.881 10.119,10 11.5,10 12.881,10 14,8.881 14,7.5 l 0,-3 C 14,3.119 12.881,2 11.5,2 m 0,1 C 12.328,3 13,3.672 13,4.5 l 0,3 C 13,8.328 12.328,9 11.5,9 10.672,9 10,8.328 10,7.5 l 0,-3 C 10,3.672 10.672,3 11.5,3"
     class="ColorScheme-Text"
     />
  <path
       style="fill:currentColor;fill-opacity:1;stroke:none" 
     class="ColorScheme-NegativeText"
   d="m 9.37,10.47 1.414,1.414 -1.414,1.414 0.707,0.707 1.414,-1.414 1.414,1.414 0.707,-0.707 -1.414,-1.414 1.414,-1.414 -0.707,-0.707 -1.414,1.414 -1.414,-1.414 z" />
</svg>
